X: 251
T:Katrynka Polka
L:1/8
M:2/4
Z:Alf Warnock - alf0@rogers.com
K:Em
|: "Em"B,2EG |B2cB|"B7"B2AG| F4| B,2^DF |A4| "Em"B,2EG |B4|
"Em"B,2EG |B2cB|"B7"B2AG| F4| B,2^DF| A2GF|"Em"E2GF| E4:|
|:"Am"e2dc |e2dc|e2dc |"Em"B4| "Am"c2BA |c2BA|"Em"B2G2 |"B7"A2F2|
"Em"B,2EG |B2cB|"B7"B2AG |F4| B,2^DF |A2GF|"Em"EFGF| E2E2:|
